X:232
T:Pigtown
T:Pigtown Fling
R:reel
D:Music at Matt Molloy's
Z:id:hn-reel-232
M:C|
K:Em
Bdge d2ed|Bdge dBAB|G2ge d2ed|B2Ac BE~E2:|
|:Beed e2fe|dfaf gfed|Beed e2fe|1 dfaf ~g3d:|2 dfaf gfed||

